X: 30113
T: Old Black Guard, The
R: barndance
M: 4/4
K: Dmajor
(3def|:g2B2 d2ed|c2F2 A2ab|c'bag fedc|(3B^cd (3cde d2 (3def|
g2B2 d2ed|c2 F2 A2 G2|FdEc DBCA|1 G2 G/F/G/A/ G2 (3def|2 G2 G/F/G/A/ G2AG|
[K:Dmaj]
|:F2Ad f2ed|c2 b2 a4|c2 b2 (3aba ^ga|bafd fdAG
(3FGA (3^GAB Ad (3cde|d2 b2 (3aba ^ga|c'bac g<ecA|
[1 GAFG E2AG:|2 d2 d/c/d/e/ d2 AG||"Final"d2 d/d/ d4d|

